X: 411
U:~=!turn!
M:C
L:1/8
K:A minor
{AB}c/B/ | AE E/E/E {ABc}cABG | EGDG B,G,DB, | A,/A,/A, (EA,) {/B,}CDEd | {AB}cAB^G A/A/A A :| B | Aa{/b}(a^g) aecA | Bg{/a}g^f gdBG |


